X:25
T:The Man From Bundoran
R:reel
N:This is *close* to the version played by Pat Kelly (son of the eponymous
N:man from Bundoran)
Z:John M. O'Hara
M:C|
L:1/8
K:D
dc | BE (3EEE BEdE | BE (3EEE BcdB |cA (3AAA cAeA |(3Bcd ef e2dc |
BE (3EEE BEdE | BEdE BcdB |cA (3AAA cAeA | (3Bcd ef e2 |]
cA | f2fe dcBA | Affe d2de | f2fe fgaf | ecAc egfe |
f2fe dcBA | fgfe d2de | f2fe fgaf | ecAc e2 |]
